client/src/assets/images/icons/scissors.svg

<?xml version="1.0" encoding="UTF-8"?>
<svg xmlns="http://www.w3.org/2000/svg" width="30pt" height="30pt" viewBox="0 0 30 30" version="1.1">
  <g>
    <path style="stroke:none;fill-rule:nonzero;fill:rgb(80%,80%,80%);fill-opacity:1;"
          d="M 25.84375 22.375 C 25.042969 20.980469 23.765625 19.957031 22.339844 19.570312 C 21.371094 19.304688 20.386719 19.355469 19.53125 19.703125 L 17.019531 15.308594 C 19.25 11.207031 22.558594 5.144531 22.976562 4.414062 C 23.996094 2.628906 22.320312 0.648438 22.25 0.566406 L 21.761719 0 L 15.015625 11.800781 L 8.265625 0 L 7.78125 0.566406 C 7.707031 0.648438 6.03125 2.628906 7.050781 4.414062 C 7.46875 5.144531 10.777344 11.207031 13.011719 15.308594 L 10.496094 19.703125 C 9.640625 19.355469 8.65625 19.304688 7.6875 19.570312 C 6.261719 19.957031 4.984375 20.980469 4.183594 22.378906 C 2.679688 25.007812 3.285156 28.195312 5.535156 29.484375 C 6.164062 29.84375 6.863281 30.027344 7.605469 30.027344 C 8.015625 30.027344 8.441406 29.996094 8.84375 29.859375 C 11.257812 29.039062 12.492188 27.066406 13.082031 25.042969 C 13.109375 24.953125 14.300781 20.132812 14.964844 19.082031 C 14.964844 19.082031 14.984375 19.042969 15.015625 18.988281 C 15.042969 19.042969 15.066406 19.082031 15.066406 19.082031 C 15.730469 20.132812 16.921875 24.953125 16.945312 25.042969 C 17.535156 27.066406 18.773438 29.039062 21.183594 29.859375 C 21.589844 29.996094 22.011719 30.027344 22.421875 30.027344 C 23.167969 30.027344 23.863281 29.84375 24.492188 29.484375 C 26.742188 28.195312 27.347656 25.007812 25.84375 22.375 Z M 10.398438 25.9375 C 9.898438 26.808594 9.097656 27.464844 8.257812 27.695312 C 8.035156 27.753906 7.820312 27.785156 7.609375 27.785156 C 7.261719 27.785156 6.9375 27.699219 6.652344 27.535156 C 5.476562 26.863281 5.242188 25.046875 6.132812 23.492188 C 6.640625 22.605469 7.421875 21.96875 8.273438 21.734375 C 8.855469 21.578125 9.417969 21.628906 9.878906 21.890625 C 11.054688 22.566406 11.289062 24.378906 10.398438 25.9375 Z M 23.375 27.535156 C 23.089844 27.699219 22.765625 27.785156 22.417969 27.785156 C 22.210938 27.785156 21.992188 27.753906 21.769531 27.695312 C 20.929688 27.464844 20.128906 26.808594 19.628906 25.9375 C 18.738281 24.378906 18.972656 22.566406 20.148438 21.894531 C 20.609375 21.628906 21.171875 21.578125 21.753906 21.738281 C 22.605469 21.96875 23.386719 22.609375 23.894531 23.492188 C 24.785156 25.050781 24.550781 26.863281 23.375 27.535156 Z M 23.375 27.535156 "/>
  </g>
</svg>

<?xml version="1.0" encoding="UTF-8"?>
<svg width="30pt" height="30pt" viewBox="0 0 30 30" xmlns="http://www.w3.org/2000/svg">
  <path d="m25.844 22.375c-0.80078-1.3945-2.0781-2.418-3.5039-2.8047-0.96875-0.26562-1.9531-0.21484-2.8086 0.13281l-2.5117-4.3945c2.2305-4.1016 5.5391-10.164 5.957-10.895 1.0195-1.7852-0.65625-3.7656-0.72656-3.8477l-0.48828-0.56641-6.7461 11.801-6.75-11.801-0.48438 0.56641c-0.074219 0.082032-1.75 2.0625-0.73047 3.8477 0.41797 0.73047 3.7266 6.793 5.9609 10.895l-2.5156 4.3945c-0.85547-0.34766-1.8398-0.39844-2.8086-0.13281-1.4258 0.38672-2.7031 1.4102-3.5039 2.8086-1.5039 2.6289-0.89844 5.8164 1.3516 7.1055 0.62891 0.35938 1.3281 0.54297 2.0703 0.54297 0.41016 0 0.83594-0.03125 1.2383-0.16797 2.4141-0.82031 3.6484-2.793 4.2383-4.8164 0.027344-0.089844 1.2188-4.9102 1.8828-5.9609 0 0 0.019531-0.039062 0.050781-0.09375 0.027344 0.054688 0.050781 0.09375 0.050781 0.09375 0.66406 1.0508 1.8555 5.8711 1.8789 5.9609 0.58984 2.0234 1.8281 3.9961 4.2383 4.8164 0.40625 0.13672 0.82812 0.16797 1.2383 0.16797 0.74609 0 1.4414-0.18359 2.0703-0.54297 2.25-1.2891 2.8555-4.4766 1.3516-7.1094zm-15.445 3.5625c-0.5 0.87109-1.3008 1.5273-2.1406 1.7578-0.22266 0.058594-0.4375 0.089844-0.64844 0.089844-0.34766 0-0.67188-0.085937-0.95703-0.25-1.1758-0.67188-1.4102-2.4883-0.51953-4.043 0.50781-0.88672 1.2891-1.5234 2.1406-1.7578 0.58203-0.15625 1.1445-0.10547 1.6055 0.15625 1.1758 0.67578 1.4102 2.4883 0.51953 4.0469zm12.977 1.5977c-0.28516 0.16406-0.60938 0.25-0.95703 0.25-0.20703 0-0.42578-0.03125-0.64844-0.089844-0.83984-0.23047-1.6406-0.88672-2.1406-1.7578-0.89062-1.5586-0.65625-3.3711 0.51953-4.043 0.46094-0.26562 1.0234-0.31641 1.6055-0.15625 0.85156 0.23047 1.6328 0.87109 2.1406 1.7539 0.89062 1.5586 0.65625 3.3711-0.51953 4.043z" fill="#ccc"/>
</svg>
